img/manaSymbols/wanted/wantedx.svg

﻿<?xml version="1.0" encoding="utf-8"?>
<svg width="714" height="714" viewBox="0 0 714 714" version="1.1" xml:space="preserve" style="fill-rule: evenodd; clip-rule: evenodd; stroke-linejoin: round; stroke-miterlimit: 2;" id="svg2" sodipodi:docname="wantedx.svg" inkscape:version="1.3.2 (091e20e, 2023-11-25, custom)" xmlns:inkscape="http://www.inkscape.org/namespaces/inkscape" xmlns:sodipodi="http://sodipodi.sourceforge.net/DTD/sodipodi-0.dtd" xmlns="http://www.w3.org/2000/svg">
  <sodipodi:namedview id="namedview2" pagecolor="#ffffff" bordercolor="#000000" borderopacity="0.25" inkscape:showpageshadow="2" inkscape:pageopacity="0.0" inkscape:pagecheckerboard="0" inkscape:deskcolor="#d1d1d1" inkscape:zoom="1.1386555" inkscape:cx="357" inkscape:cy="357" inkscape:window-width="3440" inkscape:window-height="1369" inkscape:window-x="1912" inkscape:window-y="482" inkscape:window-maximized="1" inkscape:current-layer="svg2" />
  <g transform="matrix(1,0,0,1,57,57)" id="g1">
    <circle cx="300" cy="300" r="300" style="fill: rgb(214, 183, 147); fill-opacity: 1;" id="circle1" />
    <path d="M300-57C102.966-57-57 102.966-57 300s159.966 357 357 357 357-159.966 357-357S497.034-57 300-57zm0 57c165.575 0 300 134.425 300 300S465.575 600 300 600 0 465.575 0 300 134.425 0 300 0z" style="fill: rgb(89, 76, 66); fill-opacity: 1;" id="path1" />
  </g>
  <g id="path165" transform="matrix(6,0,0,6,5097,57)">
    <path d="M-783.36 80v-3.297c4.704-.52 7.06-1.887 7.06-4.082 0-1.58-.63-3.163-1.883-4.745l-13.008-16.01-10.274 12.11c-2.57 2.974-3.863 5.433-3.863 7.355 0 2.976 2.354 4.77 7.07 5.387V80h-25.05v-3.287c3.17-.61 5.866-1.752 8.1-3.416 1.54-1.223 3.638-3.37 6.286-6.438l15.448-17.916-17.867-21.66c-2.314-2.797-4.12-4.633-5.4-5.51-1.724-1.225-4.12-2.012-7.203-2.36V16h29.54v3.285c-4.454.877-6.677 2.234-6.677 4.074 0 1.23.594 2.585 1.793 4.07l11.816 14.323 9.507-11.69c1.71-2.105 2.57-3.942 2.57-5.52 0-2.63-2.105-4.34-6.3-5.13V16h23.51v3.29c-2.054.44-3.472.835-4.23 1.19-2.57 1.228-6.495 4.868-11.796 10.92-.85.968-4.452 5.392-10.788 13.284l18.977 23.363c4.112 5.078 8.304 7.97 12.585 8.666V80h-29.924z" style="fill: rgb(0, 0, 0); fill-rule: nonzero;" id="path2" />
  </g>
</svg>

<?xml version="1.0" encoding="UTF-8" standalone="no"?>
<svg
   width="714"
   height="714"
   viewBox="0 0 714 714"
   version="1.1"
   xml:space="preserve"
   style="fill-rule:evenodd;clip-rule:evenodd;stroke-linejoin:round;stroke-miterlimit:2;"
   id="svg2"
   sodipodi:docname="wantedx.svg"
   inkscape:version="1.3.2 (091e20e, 2023-11-25, custom)"
   xmlns:inkscape="http://www.inkscape.org/namespaces/inkscape"
   xmlns:sodipodi="http://sodipodi.sourceforge.net/DTD/sodipodi-0.dtd"
   xmlns="http://www.w3.org/2000/svg"
   xmlns:svg="http://www.w3.org/2000/svg"><defs
   id="defs2" /><sodipodi:namedview
   id="namedview2"
   pagecolor="#ffffff"
   bordercolor="#000000"
   borderopacity="0.25"
   inkscape:showpageshadow="2"
   inkscape:pageopacity="0.0"
   inkscape:pagecheckerboard="0"
   inkscape:deskcolor="#d1d1d1"
   inkscape:zoom="1.1386555"
   inkscape:cx="357"
   inkscape:cy="357"
   inkscape:window-width="3440"
   inkscape:window-height="1369"
   inkscape:window-x="1912"
   inkscape:window-y="482"
   inkscape:window-maximized="1"
   inkscape:current-layer="svg2" />
    <g
   transform="matrix(1,0,0,1,57,57)"
   id="g1">
        <circle
   cx="300"
   cy="300"
   r="300"
   style="fill:#d6b793;fill-opacity:1"
   id="circle1" />
        <path
   d="M300,-57C102.966,-57 -57,102.966 -57,300C-57,497.034 102.966,657 300,657C497.034,657 657,497.034 657,300C657,102.966 497.034,-57 300,-57ZM300,0C465.575,0 600,134.425 600,300C600,465.575 465.575,600 300,600C134.425,600 0,465.575 0,300C0,134.425 134.425,0 300,0Z"
   style="fill:#594c42;fill-opacity:1"
   id="path1" />
    </g>
    <g
   id="path165"
   transform="matrix(6,0,0,6,5097,57)">
        <path
   d="M-783.359,80L-783.359,76.703C-778.656,76.182 -776.3,74.816 -776.3,72.621C-776.3,71.039 -776.929,69.457 -778.183,67.875L-791.191,51.865L-801.464,63.976C-804.034,66.949 -805.327,69.408 -805.327,71.33C-805.327,74.306 -802.973,76.101 -798.257,76.717L-798.257,80L-823.308,80L-823.308,76.713C-820.136,76.104 -817.441,74.961 -815.206,73.297C-813.667,72.074 -811.569,69.926 -808.921,66.859L-793.472,48.944L-811.339,27.284C-813.654,24.487 -815.46,22.651 -816.74,21.774C-818.464,20.549 -820.861,19.762 -823.943,19.413L-823.943,16L-794.404,16L-794.404,19.285C-798.857,20.162 -801.08,21.519 -801.08,23.359C-801.08,24.589 -800.486,25.945 -799.287,27.431L-787.471,41.753L-777.963,30.062C-776.252,27.958 -775.393,26.121 -775.393,24.542C-775.393,21.913 -777.498,20.202 -781.694,19.413L-781.694,16L-758.182,16L-758.182,19.291C-760.237,19.73 -761.655,20.125 -762.412,20.479C-764.982,21.708 -768.908,25.348 -774.209,31.399C-775.061,32.368 -778.662,36.792 -784.998,44.684L-766.021,68.047C-761.908,73.125 -757.716,76.018 -753.435,76.713L-753.435,80L-783.359,80Z"
   style="fill:#000000;fill-rule:nonzero"
   id="path2" />
    </g>
</svg>
